X: 425
M: 2/4
L: 1/16
K: G
V: 1
|:\
|:\
g2g2Te2d2 | g2g2TA2G2 |
g2g2f2f2 | egfe d4 |\
V: 2 clef=bass middle=d
|: g4 g4 | b2g2 c'4 | b2z2 g2z2 | f2d2 g4 :|
|: b4 c'2b2 | b4 f2g2 | b2g2d'2f2 | g2a2 defd |
g4 g4 | b2g2 c'4 | b2z2 g2z2 | f2d2 g4 :|

